images/icons/maestro.svg

<svg width="31" height="20" viewBox="0 0 31 20" fill="none" xmlns="http://www.w3.org/2000/svg">
<path d="M9.69678 19.0892C4.54688 19.0892 0.356445 15.0139 0.356445 10.0035C0.356445 4.99412 4.54688 0.917969 9.69678 0.917969H20.9626C26.1128 0.917969 30.3032 4.99412 30.3032 10.0035C30.3032 15.0139 26.1128 19.0892 20.9626 19.0892H9.69678ZM0.894287 10.006C0.894287 14.7268 4.84302 18.5675 9.69678 18.5675C14.55 18.5675 18.4985 14.7268 18.4985 10.006C18.4985 5.28538 14.55 1.44386 9.69678 1.44386C4.84302 1.44386 0.894287 5.28538 0.894287 10.006ZM11.7629 4.81625C13.905 5.62343 15.4243 7.63995 15.4243 10.006C15.4243 12.3724 13.9031 14.3906 11.7629 15.196V4.81625ZM3.97144 10.006V10.0035C3.97144 7.63734 5.49048 5.61916 7.63159 4.81376V15.196C5.49316 14.3906 3.97144 12.3742 3.97144 10.006Z" fill="#303030"/>
</svg>

<svg version="1.2" xmlns="http://www.w3.org/2000/svg" viewBox="0 0 31 20" width="31" height="20"><style>.a{fill:#f2f2f2}</style><path class="a" d="m9.7 19.1c-5.2 0-9.3-4.1-9.3-9.1 0-5 4.1-9.1 9.3-9.1h11.3c5.1 0 9.3 4.1 9.3 9.1 0 5-4.2 9.1-9.3 9.1zm-8.8-9.1c0 4.7 3.9 8.6 8.8 8.6 4.8 0 8.8-3.9 8.8-8.6 0-4.7-4-8.6-8.8-8.6-4.9 0-8.8 3.9-8.8 8.6zm10.8-5.2c2.2 0.8 3.7 2.8 3.7 5.2 0 2.4-1.5 4.4-3.7 5.2zm-7.8 5.2c0-2.4 1.6-4.4 3.7-5.2v10.4c-2.1-0.8-3.7-2.8-3.7-5.2z"/></svg>
